svgs/sharp-solid/font.svg

<svg xmlns="http://www.w3.org/2000/svg" viewBox="0 0 448 512"><!--! Font Awesome Pro 6.6.0 by @fontawesome - https://fontawesome.com License - https://fontawesome.com/license (Commercial License) Copyright 2024 Fonticons, Inc. --><path d="M194 52.8L201.8 32l44.4 0L254 52.8 390.2 416l25.8 0 32 0 0 64-32 0-96 0-32 0 0-64 32 0 1.8 0-18-48-159.6 0-18 48 1.8 0 32 0 0 64-32 0-96 0L0 480l0-64 32 0 25.8 0L194 52.8zM168.2 304l111.6 0L224 155.1 168.2 304z"/></svg>

<svg xmlns="http://www.w3.org/2000/svg" viewBox="0 0 448 512"><!--! Font Awesome Pro 6.4.0 by @fontawesome - https://fontawesome.com License - https://fontawesome.com/license (Commercial License) Copyright 2023 Fonticons, Inc. --><path d="M194 52.8L201.8 32h44.4L254 52.8 390.2 416H416h32v64H416 320 288V416h32 1.8l-18-48H144.2l-18 48H128h32v64H128 32 0V416H32 57.8L194 52.8zM168.2 304H279.8L224 155.1 168.2 304z"/></svg>
